X: 20252
T: Jenny my Blithest Maid
%R: air, waltz
B: James Oswald "The Caledonian Pocket Companion" v.2 p.25 #2
Z: 2019 John Chambers <jc:trillian.mit.edu>
M: 3/4
L: 1/8
K: G
%%slurgraces 1
%%graceslurs 1
|: "_Slow"\
B2 d2 g>a | {ga}b2 Ta>g e2 | (deg)edB | (dB) TA>G A2 |\
(GB)(Bd) (dg) | {ga}b2 a>g e2 | (c'b)(ag)(Ted) | {d}e2 (ga) g2 :|
|:\
b3 a gb | a2 Tg>f e2 | (fga)fed | d3 e (f/e/d) |\
(g<e) (g<e) (dB) | A2 (a>b) a2 | (Bc/d/) eBdg | {ga}b2 (Ta>g) g2 :|


